X: 10192
T: Dinny O'Brien's
R: reel
M: 4/4
K: Dmixolydian
|:"D"fdde d^cAB|"C"cBdB cAGE|"D"D2FD ADFD|"C"EFGA "A7"Bdeg|
"D"fdde d^cAB|"C"cBdB cAGE|"D"D2FD ADFB|"C"cAGE "D"D3e:|
|:"D"fdd^c defg|adfd adfd|"C"eccB cdef|"C"ggfa "A7"g3e|
"D"fdde d^cAB|"C"cBdB cAGE|"D"D2FD ADFB|"C"cAGE "D"D3e:|

